apps/statesvisited/state-images/ME.svg

<svg height="635" width="1182" xmlns="http://www.w3.org/2000/svg"><path d="m897.28852 141.61706s-2.3757-.29697-4.1575-2.37573-13.0665-38.60559-13.0665-38.60559 5.3454-10.987756 5.6424-12.769556c.2969-1.78179-1.1879-22.569424.5939-25.539085 1.7818-2.969662 5.9393-13.363477 7.7211-13.363477s2.0788 3.563594 4.1575 3.563594c2.0788 0 5.0485-6.236289 6.8303-6.533255 1.78181-.296966 6.23621-1.484831 8.01801 1.484831 1.7818 2.969661 6.83025 26.429986 8.90895 27.914817 2.0788 1.484831 6.2363 2.375729 6.5333 3.563594.297 1.187864-.297 4.454491 1.1879 5.345391 1.4848.8909 8.315 1.7818 9.2059 4.15752.8909 2.37573 1.4848 5.93933-1.4848 8.315063-2.9697 2.37573-5.3454 2.07876-5.9394 3.266623-.5939 1.18787.297 2.96967-3.8605 6.23629-4.1575 3.26663-7.7211 1.18786-9.79985 2.07876-2.0788.8909-1.1879 6.23629-3.8606 9.50292s-7.4241 4.75146-9.50291 6.53325c-2.0787 1.7818-7.4241 17.81797-7.1272 17.22404z" fill="#173f5f" fill-rule="evenodd" opacity=".9" stroke="#000"/></svg>

<?xml version="1.0" encoding="UTF-8" standalone="no"?>
<!-- Created with Inkscape (http://www.inkscape.org/) -->
<svg
   xmlns:dc="http://purl.org/dc/elements/1.1/"
   xmlns:cc="http://web.resource.org/cc/"
   xmlns:rdf="http://www.w3.org/1999/02/22-rdf-syntax-ns#"
   xmlns:svg="http://www.w3.org/2000/svg"
   xmlns="http://www.w3.org/2000/svg"
   xmlns:xlink="http://www.w3.org/1999/xlink"
   xmlns:sodipodi="http://sodipodi.sourceforge.net/DTD/sodipodi-0.dtd"
   xmlns:inkscape="http://www.inkscape.org/namespaces/inkscape"
   id="svg1923"
   sodipodi:version="0.32"
   inkscape:version="0.44"
   width="1182"
   height="635"
   version="1.0"
   sodipodi:docbase="/Users/amyshore/Desktop"
   sodipodi:docname="usa.svg">
  <metadata
     id="metadata1928">
    <rdf:RDF>
      <cc:Work
         rdf:about="">
        <dc:format>image/svg+xml</dc:format>
        <dc:type
           rdf:resource="http://purl.org/dc/dcmitype/StillImage" />
      </cc:Work>
    </rdf:RDF>
  </metadata>
  <defs
     id="defs1926" />
  <sodipodi:namedview
     inkscape:window-height="752"
     inkscape:window-width="1280"
     inkscape:pageshadow="2"
     inkscape:pageopacity="0.0"
     guidetolerance="10.0"
     gridtolerance="10.0"
     objecttolerance="10.0"
     borderopacity="1.0"
     bordercolor="#666666"
     pagecolor="#ffffff"
     id="base"
     inkscape:zoom="0.59527559"
     inkscape:cx="775.234"
     inkscape:cy="319.32597"
     inkscape:window-x="0"
     inkscape:window-y="22"
     inkscape:current-layer="layer2" />
  <g
     inkscape:groupmode="layer"
     id="layer1"
     inkscape:label="bg"
     style="opacity:1;display:none"
     sodipodi:insensitive="true">
    <image
       xlink:href="ElectoralCollege1996-Large.png"
       sodipodi:absref="/Users/amyshore/Desktop/ElectoralCollege1996-Large.png"
       width="1182"
       height="635"
       id="image1930"
       x="-1.3571358"
       y="1.6798911" />
  </g>
  <g
     inkscape:groupmode="layer"
     id="layer2"
     inkscape:label="vector"
     style="opacity:0.9;display:inline"> <path style="fill:#173f5f;fill-opacity:1;fill-rule:evenodd;stroke:black;stroke-width:1px;stroke-linecap:butt;stroke-linejoin:miter;stroke-opacity:1" d="M 897.28852,141.61706 C 897.28852,141.61706 894.91282,141.32009 893.13102,139.24133 C 891.34922,137.16257 880.06452,100.63574 880.06452,100.63574 C 880.06452,100.63574 885.40992,89.647984 885.70692,87.866184 C 886.00382,86.084394 884.51902,65.29676 886.30082,62.327099 C 888.08262,59.357437 892.24012,48.963622 894.02192,48.963622 C 895.80372,48.963622 896.10072,52.527216 898.17942,52.527216 C 900.25822,52.527216 903.22792,46.290927 905.00972,45.993961 C 906.79153,45.696995 911.24593,44.50913 913.02773,47.478792 C 914.80953,50.448453 919.85798,73.908778 921.93668,75.393609 C 924.01548,76.87844 928.17298,77.769338 928.46998,78.957203 C 928.76698,80.145067 928.17298,83.411694 929.65788,84.302594 C 931.14268,85.193494 937.97288,86.084394 938.86378,88.460114 C 939.75468,90.835844 940.34858,94.399444 937.37898,96.775177 C 934.40928,99.150907 932.03358,98.853937 931.43958,100.0418 C 930.84568,101.22967 931.73658,103.01147 927.57908,106.27809 C 923.42158,109.54472 919.85798,107.46595 917.77923,108.35685 C 915.70043,109.24775 916.59133,114.59314 913.91863,117.85977 C 911.24593,121.1264 906.49453,122.61123 904.41572,124.39302 C 902.33702,126.17482 896.99162,142.21099 897.28852,141.61706 z " id="path12590" />   </g>
</svg>
